X: 33842
T: Reconciliation, The
R: reel
M: 4/4
K: Amajor
A2 c/B/A eA fA|eA fA ec Bc|A2 c/B/A eA fA|ec Bc AF EF|
A2 c/B/A eA fA|eA fA ec Bc|AB AF Ec df|ec Bc A2 cB:|
|:AB ce ~a3f|efed cdcB|AB ce ~a3g|fbba gefg|
~a2 ga fa ec|dcBA BA FG|AB AF Ec df|ec Bc A2 cB:|

